svg-my/1415A.svg

<?xml version="1.0" encoding="UTF-8" standalone="no"?>
<svg
   width="1098.0095"
   height="1797.7578"
   id="svg2034"
   version="1.1"
   xml:space="preserve"
   sodipodi:docname="1415A.svg"
   inkscape:version="1.4.3 (0d15f75, 2025-12-25)"
   xmlns:inkscape="http://www.inkscape.org/namespaces/inkscape"
   xmlns:sodipodi="http://sodipodi.sourceforge.net/DTD/sodipodi-0.dtd"
   xmlns="http://www.w3.org/2000/svg"
   xmlns:svg="http://www.w3.org/2000/svg"
   xmlns:rdf="http://www.w3.org/1999/02/22-rdf-syntax-ns#"
   xmlns:cc="http://creativecommons.org/ns#"
   xmlns:dc="http://purl.org/dc/elements/1.1/"><sodipodi:namedview
     id="namedview1"
     pagecolor="#ffffff"
     bordercolor="#666666"
     borderopacity="1.0"
     inkscape:showpageshadow="2"
     inkscape:pageopacity="0.0"
     inkscape:pagecheckerboard="0"
     inkscape:deskcolor="#d1d1d1"
     showguides="true"
     inkscape:zoom="0.29696193"
     inkscape:cx="267.71109"
     inkscape:cy="489.9618"
     inkscape:window-width="1680"
     inkscape:window-height="998"
     inkscape:window-x="-8"
     inkscape:window-y="-8"
     inkscape:window-maximized="1"
     inkscape:current-layer="svg2034"><sodipodi:guide
       position="503.35477,1326.7031"
       orientation="0,-1"
       id="guide1"
       inkscape:locked="false" /><sodipodi:guide
       position="168.95476,1213.9824"
       orientation="0,-1"
       id="guide2"
       inkscape:locked="false" /></sodipodi:namedview><metadata
     id="metadata2041"><rdf:RDF><cc:Work
         rdf:about=""><dc:format>image/svg+xml</dc:format><dc:type
           rdf:resource="http://purl.org/dc/dcmitype/StillImage" /></cc:Work></rdf:RDF></metadata><defs
     id="defs2039" /><path
     id="path2036"
     style="display:inline;fill:#000000;stroke:none;stroke-width:63.2475"
     d="M 1035.5488 0.04296875 C 1031.877 -0.07090415 1028.1034 0.0412887 1024.2324 0.3828125 L 711.36133 557.81641 C 697.79034 579.21471 368.23965 583.00705 229.56445 583.6543 C 206.90426 583.6543 130.68945 583.65477 130.68945 571.77344 C 130.68945 556.96861 161.55403 534.9209 171.60547 509.83789 C 181.65691 484.75488 184.49609 470.518 184.49609 449.18555 C 184.49609 402.63409 161.86524 341.64062 91.564453 341.64062 C 55.925663 341.64062 18.100129 373.92905 20.318359 402.19922 C 29.200689 411.86677 35.437479 412.62054 75.755859 407.74219 C 62.154772 436.78251 44.532189 544.40898 73.134766 607.3457 C 84.437254 630.78846 133.69784 634.32298 177.5918 633.7793 C 212.69112 839.64759 220.82145 922.2309 222.24023 937.63477 C 294.19641 932.16976 366.15132 950.84291 438.10742 993.65234 C 451.76998 975.43552 466.57208 966.32812 482.51172 966.32812 C 498.45136 966.32812 506.6502 974.98126 507.10547 992.28711 C 479.30542 1036.6775 438.54899 1079.7724 424.44531 1130.2793 L 593.07031 1218.2988 C 596.27567 1219.7011 600.56378 1217.7781 605.16406 1214.0938 C 635.1628 1207.1981 766.71906 1137.9943 770.44336 1163.3262 C 800.46601 1367.5339 782.5381 1571.3892 778.51953 1776.5391 L 778.10352 1797.7578 L 1014.5742 1797.6875 C 928.83553 1475.7489 940.12919 1391.0492 811.54297 1122.5801 C 796.01391 1090.1577 668.54967 1140.2036 645.20117 1146.9395 L 1098.0098 35.904297 C 1082.0702 12.791749 1061.2514 0.83988095 1035.5488 0.04296875 z M 1033.7988 53.667969 L 1050.1934 60.5 L 584.375 1167.1758 C 576.03954 1161.7638 503.28121 1127.3866 488.03516 1109.5723 C 488.03516 1097.7312 496.41515 1089.672 520.76758 1057.1836 C 546.37668 1023.0185 573.63219 987.51453 542.62695 941.72656 C 519.39005 907.41083 482.14233 888.22825 428.54492 925.33008 C 385.73559 899.8267 344.30232 887.07422 276.90039 887.07422 C 265.05965 783.23875 251.85079 717.67848 237.27734 635.70312 L 725.02344 635.70312 L 1033.7988 53.667969 z M 812.34961 1205.5254 C 890.64696 1370.7197 917.85094 1573.373 954.3125 1752.9102 L 819.41211 1756.123 C 821.46323 1583.7001 837.31416 1380.5609 812.34961 1205.5254 z " /></svg>

<?xml version="1.0" encoding="UTF-8" standalone="no"?>
<svg
   width="1098.0095"
   height="1797.7578"
   id="svg2034"
   version="1.1"
   xml:space="preserve"
   sodipodi:docname="1415A.svg"
   inkscape:version="1.4.2 (f4327f4, 2025-05-13)"
   xmlns:inkscape="http://www.inkscape.org/namespaces/inkscape"
   xmlns:sodipodi="http://sodipodi.sourceforge.net/DTD/sodipodi-0.dtd"
   xmlns="http://www.w3.org/2000/svg"
   xmlns:svg="http://www.w3.org/2000/svg"
   xmlns:rdf="http://www.w3.org/1999/02/22-rdf-syntax-ns#"
   xmlns:cc="http://creativecommons.org/ns#"
   xmlns:dc="http://purl.org/dc/elements/1.1/"><sodipodi:namedview
     id="namedview1"
     pagecolor="#ffffff"
     bordercolor="#666666"
     borderopacity="1.0"
     inkscape:showpageshadow="2"
     inkscape:pageopacity="0.0"
     inkscape:pagecheckerboard="0"
     inkscape:deskcolor="#d1d1d1"
     showguides="true"
     inkscape:zoom="0.41996758"
     inkscape:cx="996.50549"
     inkscape:cy="872.68641"
     inkscape:window-width="1680"
     inkscape:window-height="998"
     inkscape:window-x="-8"
     inkscape:window-y="-8"
     inkscape:window-maximized="1"
     inkscape:current-layer="svg2034"><sodipodi:guide
       position="503.35477,1326.7031"
       orientation="0,-1"
       id="guide1"
       inkscape:locked="false" /><sodipodi:guide
       position="168.95476,1213.9824"
       orientation="0,-1"
       id="guide2"
       inkscape:locked="false" /></sodipodi:namedview><metadata
     id="metadata2041"><rdf:RDF><cc:Work
         rdf:about=""><dc:format>image/svg+xml</dc:format><dc:type
           rdf:resource="http://purl.org/dc/dcmitype/StillImage" /></cc:Work></rdf:RDF></metadata><defs
     id="defs2039" /><path
     id="path2036"
     style="display:inline;fill:#000000;stroke:none;stroke-width:63.2475"
     d="m 1035.5488,0.04296875 c -3.6718,-0.1138729 -7.4454,-0.0016801 -11.3164,0.33984375 L 711.36133,557.81641 c -14.67851,23.1446 -399.01345,25.85229 -511.65821,25.9414 -29.39872,0.0233 -89.23632,-1.33551 -89.23632,-11.86328 0,-14.80483 30.86262,-36.85254 40.91406,-61.93555 10.05144,-25.08301 12.89062,-39.31989 12.89062,-60.65234 0,-46.55146 -22.63085,-107.54687 -92.931636,-107.54687 -35.63879,0 -73.464324,32.29037 -71.246094,60.56054 8.88233,9.66755 15.11912,10.42132 55.4375,5.54297 -13.601087,29.04032 -31.221718,136.6668 -2.619141,199.60352 13.081604,27.13286 77.009541,27.59711 124.615231,25.93554 35.15371,206.1446 43.29325,288.81916 44.71289,304.23243 71.95618,-5.46501 143.91109,13.20814 215.86719,56.01757 13.66256,-18.21682 28.46466,-27.32422 44.4043,-27.32422 15.93964,0 24.13848,8.65314 24.59375,25.95899 -27.80005,44.39039 -68.55648,87.48529 -82.66016,137.99219 l 168.625,88.0195 c 3.20536,1.4023 7.49347,-0.5207 12.09375,-4.205 29.99874,-6.8957 161.555,-76.0995 165.2793,-50.7676 30.18876,210.3416 11.80457,423.0448 7.66016,634.4316 l 236.47068,-0.07 c -85.73867,-321.9386 -74.44501,-406.6383 -203.03123,-675.1074 -15.52906,-32.4224 -142.9933,17.6235 -166.3418,24.3594 L 1098.0098,35.904297 C 1082.0702,12.791749 1061.2514,0.83988095 1035.5488,0.04296875 Z M 1033.7988,53.667969 1050.1934,60.5 584.375,1167.1758 c -8.33546,-5.412 -81.09379,-39.7892 -96.33984,-57.6035 0,-11.8411 8.37999,-19.9003 32.73242,-52.3887 25.6091,-34.1651 52.86461,-69.66907 21.85937,-115.45704 -23.2369,-34.31573 -60.48462,-53.49831 -114.08203,-16.39648 -42.80933,-25.50338 -84.2426,-38.25586 -151.64453,-38.25586 -11.84074,-103.83547 -25.0496,-169.39574 -39.62305,-251.3711 h 487.7461 z M 812.34961,1205.5254 c 78.29735,165.1943 105.50133,367.8476 141.96289,547.3848 l -134.90039,3.2128 c 2.05112,-172.4229 17.90205,-375.5621 -7.0625,-550.5976 z"
     sodipodi:nodetypes="sccsssssccccccsccccsccsccsccccssccccccccc" /></svg>
